static/assets/images/networks/celo.svg

<svg width="256" height="256" viewBox="0 0 256 256" fill="none" xmlns="http://www.w3.org/2000/svg">
<path d="M128 256C198.692 256 256 198.692 256 128C256 57.3075 198.692 0 128 0C57.3075 0 0 57.3075 0 128C0 198.692 57.3075 256 128 256Z" fill="#FCFF52"/>
<path d="M61.0981 56.5H194.902C197.441 56.5 199.5 58.5592 199.5 61.0994V102.814C199.5 105.355 197.441 107.414 194.902 107.414H179.183C177.357 107.414 175.72 106.324 174.895 104.695C166.172 87.4708 148.523 75.5934 128.1 75.5934C99.0498 75.5934 75.524 99.2014 75.524 128.149C75.524 157.098 99.0498 180.91 128.1 180.91C148.124 180.91 165.747 169.416 174.47 152.592C175.305 150.983 176.932 149.909 178.745 149.909H194.899C197.439 149.909 199.497 151.968 199.497 154.508V195.401C199.497 197.941 197.439 200 194.899 200H61.0981C58.5586 200 56.5 197.941 56.5 195.401V61.0994C56.5 58.5592 58.5586 56.5 61.0981 56.5Z" fill="black"/>
</svg>

<svg xmlns="http://www.w3.org/2000/svg" fill="none" viewBox="0 0 256 256"><path fill="#FCFF52" d="M128 256c70.692 0 128-57.308 128-128S198.692 0 128 0 0 57.308 0 128s57.308 128 128 128"/><path fill="#000" d="M61.098 56.5h133.804a4.6 4.6 0 0 1 4.598 4.6v41.714c0 2.541-2.059 4.6-4.598 4.6h-15.719c-1.826 0-3.463-1.09-4.288-2.719-8.723-17.224-26.372-29.102-46.795-29.102-29.05 0-52.576 23.608-52.576 52.556 0 28.949 23.526 52.761 52.576 52.761 20.024 0 37.647-11.494 46.37-28.318.835-1.609 2.462-2.683 4.275-2.683h16.154a4.6 4.6 0 0 1 4.598 4.599v40.893a4.6 4.6 0 0 1-4.598 4.599h-133.8a4.6 4.6 0 0 1-4.599-4.599V61.099a4.6 4.6 0 0 1 4.598-4.599"/></svg>
